X:7
T:Bourr\'ee
R:Bourr\'ee
O:France
M:2/4
K:C
C4E2G2|c6e2|d3c B2A2|GAGF EFED|\
C4E2G2|c6e2|d3c B2A2|G8::\
E3G E3G|F3A F3A|G2c2 cBcd|e2d2 c2A2|\
E3G E3G|F3A F3A|G2c2 cBAB|c8:|
